newicons/aldi_hot.svg

<svg id="a" xmlns="http://www.w3.org/2000/svg" viewBox="0 0 48 48"><defs><style>.o{fill:none;stroke:#fff;stroke-linecap:round;stroke-linejoin:round}</style></defs><path class="o" d="M20.875 10.499 14.5 27.501m10.297-17.002-6.375 17.002m10.297-17.002-6.375 17.002m7.117-12.752h.871M27.867 19h4.039m-5.632 4.251H33.5"/><rect class="o" x="5.5" y="5.5" width="37" height="37" rx="4" ry="4"/><path class="r" style="fill:none;stroke:#fff;stroke-linecap:round;stroke-linejoin:round;stroke-width:1px" d="M15.451 30.802v8m5.3-8v8m-5.3-4.015h5.3m2.474.715a2 2 0 0 1 4 0v1.3a2 2 0 0 1-4 0zm4.332-4.7h5.3m-2.65 8v-8"/></svg>

<?xml version="1.0" encoding="UTF-8"?><svg id="b" xmlns="http://www.w3.org/2000/svg" viewBox="0 0 48 48"><defs><style>.d{fill:none;stroke:#fff;stroke-linecap:round;stroke-linejoin:round;}</style></defs><path class="d" d="M20.875,10.499l-6.375,17.002M24.797,10.499l-6.375,17.002M28.719,10.499l-6.375,17.002M29.461,14.749h.871M27.867,19h4.039M26.274,23.251h7.226"/><rect class="d" x="5.5" y="5.5" width="37" height="37" rx="4" ry="4"/><path class="d" d="M15.451,30.802v8M20.751,30.802v8M15.451,34.787h5.3M23.225,35.502c0-1.1046.8954-2,2-2s2,.8954,2,2v1.3c0,1.1046-.8954,2-2,2s-2-.8954-2-2v-1.3ZM27.557,30.802h5.3M30.207,38.802v-8"/></svg>
